build/img/main/p7.svg

<svg width="146" height="39" viewBox="0 0 146 39" fill="none" xmlns="http://www.w3.org/2000/svg">
<g clip-path="url(#clip0)">
<path fill-rule="evenodd" clip-rule="evenodd" d="M25.2928 18.2288C25.2928 14.8156 22.8479 12.9033 18.4446 12.9033H16.3367V23.7431C16.6379 23.8186 18.0677 24.1566 19.4218 24.1566C23.149 24.1546 25.2928 22.0176 25.2928 18.2288ZM16.3367 11.0645H17.954C21.416 11.0645 23.6735 9.67695 23.6735 6.45063C23.6755 3.41317 22.0561 1.98787 18.5942 1.98787C17.8045 1.98787 16.4883 2.25027 16.3367 2.28804V11.0645ZM11.9734 6.71303C11.9734 2.32581 11.4449 0.938274 9 0.0377695V0H18.2572C25.0674 0 28.1146 2.13696 28.1146 6.33931C28.1146 9.00306 26.0087 11.0645 22.7721 11.5535C26.6847 11.7026 29.7718 14.1039 29.7718 18.193C29.7718 22.9559 26.1961 25.5441 21.3801 26.1067C20.4767 26.22 19.5733 26.2578 18.5583 26.2578H11.9734V6.71303Z" fill="white"/>
<path fill-rule="evenodd" clip-rule="evenodd" d="M41.7391 5.17641L38.1654 16.054H45.4284L41.7789 5.17641H41.7391ZM53.9676 26.2558H49.1137L46.254 18.3043H37.4495L34.7015 26.2558H31.6543L38.9152 5.96361C39.33 4.87624 39.6312 3.56226 39.6312 2.7373C39.6312 1.31199 38.9152 0.524797 37.4116 0.0377695V0H44.184L53.9676 26.2558Z" fill="white"/>
<path fill-rule="evenodd" clip-rule="evenodd" d="M60.5921 6.71303C60.5921 2.32382 59.8024 0.936286 57.3555 0.0357816V0H64.9574V26.2558H60.5921V6.71303Z" fill="white"/>
<path fill-rule="evenodd" clip-rule="evenodd" d="M74.2532 6.71303C74.2532 2.32382 73.4635 0.936286 71.0166 0.0357816V0H78.6186V12.9033L89.3415 0H92.8792L84.4875 9.90158L94.5723 26.2558H89.1919L81.4783 12.9788L78.6166 16.5788V26.2558H74.2512V6.71303H74.2532Z" fill="white"/>
<path fill-rule="evenodd" clip-rule="evenodd" d="M106.087 5.17641L102.513 16.054H109.776L106.127 5.17641H106.087ZM118.315 26.2558H113.461L110.602 18.3043H101.797L99.0491 26.2558H96.002L103.265 5.96361C103.678 4.87624 103.979 3.56226 103.979 2.7373C103.979 1.31199 103.265 0.524797 101.759 0.0377695V0H108.532L118.315 26.2558Z" fill="white"/>
<path fill-rule="evenodd" clip-rule="evenodd" d="M123.438 26.2558V6.71502C123.438 2.32581 122.648 0.938274 120.201 0.0377695V0H127.803V23.8544C128.028 23.8544 129.233 24.1546 130.437 24.1546H130.852H131.566C136.195 24.1546 137.361 22.5424 137.964 20.7037H138.002C138.002 22.5782 138.002 24.3792 138.002 26.2558H123.438Z" fill="white"/>
<path d="M132.599 6.0309H133.092V5.41068H135.976V4.56584L133.026 2.36328H132.599V4.57976H130.904V5.41068H132.599V6.0309ZM133.094 3.01331L135.26 4.57976H133.094V3.01331ZM135.623 8.38652C135.623 8.94909 135.312 9.23932 134.789 9.23932C134.145 9.23932 133.818 8.87753 133.818 8.10623V7.96112H133.413C133.413 8.93517 133.319 9.5216 132.53 9.5216C131.668 9.5216 131.283 8.86361 131.283 7.73053V7.13615H130.906V7.72854C130.906 9.53352 131.479 10.3943 132.536 10.3943C133.295 10.3943 133.724 9.77406 133.708 8.95704H133.716C133.774 9.62894 134.354 10.0901 134.869 10.0901C135.702 10.0901 136.065 9.47588 136.065 8.52369C136.065 8.10425 135.914 7.55559 135.732 7.20971H135.05V7.22362C135.367 7.53373 135.623 8.00286 135.623 8.38652ZM130.811 13.0361C130.811 14.4436 132.145 14.8928 133.636 14.8928C135.07 14.8928 136.063 14.3362 136.063 13.0361C136.063 11.7281 135.07 11.1735 133.636 11.1735C132.145 11.1735 130.811 11.6287 130.811 13.0361ZM135.658 13.0361C135.658 13.708 134.847 14.0102 133.622 14.0102C132.406 14.0102 131.217 13.8651 131.217 13.0361C131.217 12.1993 132.406 12.0541 133.622 12.0541C134.847 12.0541 135.658 12.3583 135.658 13.0361ZM134.6 17.0516V15.6721H134.592C134.518 16.0398 134.273 16.171 133.989 16.1273L130.902 15.6721V16.1491L133.742 16.5467V16.5547L130.902 17.7673V18.2006L133.742 19.4351V19.443L130.902 19.7969V20.6556L134.598 20.1209V18.791H134.59C134.538 18.9998 134.422 19.1151 134.292 19.1151C134.199 19.1151 134.103 19.1011 134.017 19.0654L131.953 18.1708V18.1629L134.6 17.0516Z" fill="white"/>
<path d="M15.3897 32.5059V31.9652H11.9736V37.6326H12.5799V32.5079H15.3897V32.5059ZM19.9007 37.6306V31.9652H16.7717V34.2652C16.7717 36.6208 16.2692 37.0899 15.5652 37.0899H15.4137V37.6306H15.7008C16.7857 37.6306 17.362 36.8355 17.362 34.4461V32.5039H19.2944V37.6286H19.9007V37.6306ZM25.0098 31.9652H24.3637L22.9817 35.3167L21.4482 31.9652H20.802L22.6786 35.9926L22.4473 36.5254C22.2798 36.915 22.0883 37.0899 21.6974 37.0899H21.3385V37.6306H21.8331C22.3994 37.6306 22.7265 37.2649 22.9518 36.746L25.0098 31.9652ZM29.8019 35.9688C29.8019 34.9669 29.1159 34.297 28.053 34.297H26.5115V32.5059H29.449V31.9652H25.9052V37.6326H28.053C29.1139 37.6306 29.8019 36.9627 29.8019 35.9688ZM29.1937 35.9688C29.1937 36.6764 28.755 37.0919 27.9952 37.0919H26.5095V34.8397H27.9952C28.755 34.8377 29.1937 35.2511 29.1937 35.9688ZM35.2143 37.6306V31.9652H34.6399L31.7503 36.581V31.9652H31.1441V37.6326H31.7184L34.608 33.0088V37.6326H35.2143V37.6306ZM40.7702 37.6306V31.9652H40.1639V34.5037H37.4657V31.9652H36.8595V37.6326H37.4657V35.0464H40.1639V37.6326H40.7702V37.6306ZM46.328 37.6306V31.9652H45.7218V34.5037H43.0216V31.9652H42.4154V37.6326H43.0216V35.0464H45.7198V37.6326H46.328V37.6306ZM51.9318 37.6306L49.8478 31.9632H49.3373L47.2454 37.6306H47.8915L48.3462 36.3484H50.829L51.2837 37.6306H51.9318ZM50.6555 35.8256H48.5317L49.6006 32.8339L50.6555 35.8256ZM54.4226 35.2989H55.8285V37.6306H56.4347V31.9652H54.3189C53.2659 31.9652 52.562 32.6172 52.562 33.629C52.562 34.4401 53.0326 35.0305 53.7844 35.2134L52.4742 37.6326H53.1842L54.4226 35.2989ZM55.8285 34.7582H54.3747C53.6169 34.7582 53.1682 34.3367 53.1682 33.6271C53.1682 32.9194 53.6149 32.496 54.3747 32.496H55.8285V34.7582ZM63.9649 35.9688C63.9649 34.9669 63.2789 34.297 62.216 34.297H60.6744V32.5059H63.6119V31.9652H60.0662V37.6326H62.214C63.2769 37.6306 63.9649 36.9627 63.9649 35.9688ZM63.3567 35.9688C63.3567 36.6764 62.9179 37.0919 62.1581 37.0919H60.6725V34.8397H62.1581C62.9179 34.8377 63.3567 35.2511 63.3567 35.9688ZM69.2655 37.6306L67.1816 31.9632H66.6711L64.5791 37.6306H65.2253L65.6799 36.3484H68.1627L68.6174 37.6306H69.2655ZM67.9873 35.8256H65.8634L66.9323 32.8339L67.9873 35.8256ZM74.2551 37.6306V31.9652H73.6807L70.7911 36.581V31.9652H70.1849V37.6326H70.7592L73.6488 33.0088V37.6326H74.2551V37.6306ZM73.3856 30.6035H72.8751C72.8432 30.9931 72.6118 31.1919 72.221 31.1919C71.8301 31.1919 71.5988 30.9931 71.5669 30.6035H71.0564C71.1042 31.3112 71.5589 31.6054 72.223 31.6054C72.8831 31.6074 73.3377 31.3132 73.3856 30.6035ZM76.5385 37.6306V34.6786L79.1489 37.6306H79.9546L77.2484 34.6548L79.7392 31.9652H78.9734L76.5385 34.6627V31.9652H75.9322V37.6326H76.5385V37.6306ZM84.7307 37.6306L82.6468 31.9652H82.1362L80.0443 37.6326H80.6904L81.1451 36.3504H83.6279L84.0826 37.6326H84.7307V37.6306ZM83.4524 35.8256H81.3286L82.3995 32.8339L83.4524 35.8256ZM89.4091 37.6306V31.9652H86.2802V34.2652C86.2802 36.6208 85.7777 37.0899 85.0757 37.0899H84.9241V37.6306H85.2113C86.2982 37.6306 86.8725 36.8355 86.8725 34.4461V32.5039H88.8049V37.6286H89.4091V37.6306ZM94.9431 35.9688C94.9431 34.9669 94.2491 34.297 93.1862 34.297H91.6606V31.9652H91.0544V37.6326H93.1862C94.2391 37.6306 94.9431 36.9627 94.9431 35.9688ZM94.3269 35.9688C94.3269 36.6764 93.8882 37.0919 93.1284 37.0919H91.6586V34.8397H93.1284C93.8882 34.8377 94.3269 35.2511 94.3269 35.9688ZM99.8289 35.9926H99.2227C99.0711 36.6844 98.5686 37.1396 97.8567 37.1396C97.4818 37.1396 97.1228 36.9965 96.8755 36.742C96.5165 36.3763 96.4767 35.9867 96.4767 34.7999C96.4767 33.6151 96.5165 33.2235 96.8755 32.8578C97.1228 32.6033 97.4818 32.4602 97.8567 32.4602C98.5666 32.4602 99.0552 32.9134 99.2067 33.6072H99.8289C99.6375 32.5397 98.8797 31.9195 97.8567 31.9195C97.2983 31.9195 96.7858 32.1262 96.4029 32.5079C95.8684 33.0406 95.8684 33.5972 95.8684 34.7999C95.8684 36.0026 95.8684 36.5592 96.4029 37.0919C96.7858 37.4736 97.2963 37.6803 97.8567 37.6803C98.8697 37.6783 99.6455 37.0581 99.8289 35.9926ZM101.809 37.6306V34.6786L104.42 37.6306H105.225L102.519 34.6548L105.01 31.9652H104.244L101.809 34.6627V31.9652H101.203V37.6326H101.809V37.6306ZM109.999 37.6306L107.916 31.9632H107.405L105.313 37.6306H105.959L106.414 36.3484H108.897L109.351 37.6306H109.999ZM108.721 35.8256H106.597L107.668 32.8339L108.721 35.8256ZM112.49 35.2989H113.896V37.6306H114.502V31.9652H112.387C111.334 31.9652 110.63 32.6172 110.63 33.629C110.63 34.4401 111.1 35.0305 111.85 35.2134L110.54 37.6326H111.25L112.49 35.2989ZM113.896 34.7582H112.442C111.685 34.7582 111.238 34.3367 111.238 33.6271C111.238 32.9194 111.685 32.496 112.442 32.496H113.896V34.7582ZM122.041 36.0801C122.041 35.6507 121.897 35.3008 121.618 35.0285C121.482 34.8933 121.378 34.8297 121.115 34.7184C121.331 34.623 121.418 34.5753 121.538 34.456C121.809 34.2016 121.953 33.8596 121.953 33.4541C121.953 32.5636 121.283 31.9652 120.276 31.9652H118.136V37.6326H120.347C121.4 37.6306 122.041 37.0422 122.041 36.0801ZM121.345 33.4859C121.345 34.1061 120.93 34.4719 120.226 34.4719H118.74V32.5059H120.226C120.93 32.5059 121.345 32.8717 121.345 33.4859ZM121.432 36.0483C121.432 36.6844 120.994 37.0919 120.292 37.0919H118.742V35.0146H120.292C120.994 35.0126 121.432 35.4102 121.432 36.0483ZM127.23 34.4083C127.23 33.7165 127.19 32.9989 126.695 32.5059C126.312 32.1242 125.802 31.9175 125.241 31.9175C124.683 31.9175 124.17 32.1242 123.787 32.5059C123.301 32.9909 123.253 33.6827 123.253 34.3606V34.7979C123.253 35.929 123.269 36.5731 123.787 37.0899C124.17 37.4716 124.675 37.6783 125.241 37.6783C125.808 37.6783 126.312 37.4716 126.695 37.0899C127.214 36.5731 127.23 35.927 127.23 34.7979V34.4083ZM126.621 35.0762C126.621 35.7282 126.613 36.3425 126.222 36.7321C125.959 36.9945 125.616 37.1376 125.239 37.1376C124.864 37.1376 124.521 36.9945 124.258 36.7321C123.891 36.3663 123.859 35.8097 123.859 35.1955V34.6309C123.859 33.8517 123.859 33.2613 124.258 32.8637C124.521 32.6013 124.872 32.4582 125.239 32.4582C125.606 32.4582 125.957 32.6013 126.222 32.8637C126.597 33.2374 126.621 33.8278 126.621 34.4958V35.0762ZM127.884 37.0899V39.0003H128.482V37.6306H132.291V39.0003H132.889V37.0899H132.211V31.9652H129.106V33.8755C129.106 35.2591 128.907 36.2789 128.388 37.0899H127.884ZM129.066 37.0899C129.521 36.2948 129.68 35.2989 129.68 34.2493V32.5059H131.605V37.0899H129.066ZM138 37.6306L135.916 31.9632H135.406L133.314 37.6306H133.96L134.415 36.3484H136.897L137.352 37.6306H138ZM136.722 35.8256H134.598L135.669 32.8339L136.722 35.8256Z" fill="white"/>
</g>
<defs>
<clipPath id="clip0">
<rect width="129" height="39" fill="white" transform="translate(9)"/>
</clipPath>
</defs>
</svg>

<svg width="146" height="39" fill="none" xmlns="http://www.w3.org/2000/svg"><g clip-path="url(#clip0)" fill="#fff"><path fill-rule="evenodd" clip-rule="evenodd" d="M25.293 18.229c0-3.413-2.445-5.326-6.848-5.326h-2.108v10.84c.3.076 1.73.414 3.085.414 3.727-.002 5.87-2.14 5.87-5.928zm-8.956-7.164h1.617c3.462 0 5.72-1.388 5.72-4.614.002-3.038-1.618-4.463-5.08-4.463-.79 0-2.106.262-2.257.3v8.777zm-4.364-4.352c0-4.387-.528-5.775-2.973-6.675V0h9.257c6.81 0 9.858 2.137 9.858 6.34 0 2.663-2.106 4.725-5.343 5.213 3.913.15 7 2.55 7 6.64 0 4.763-3.576 7.351-8.392 7.914-.903.113-1.807.15-2.822.15h-6.585V6.714zM41.74 5.176l-3.575 10.878h7.263l-3.65-10.878h-.039zm12.228 21.08h-4.854l-2.86-7.952H37.45l-2.748 7.952h-3.048l7.261-20.292c.415-1.088.716-2.402.716-3.227 0-1.425-.716-2.212-2.22-2.7V0h6.773l9.784 26.256zm6.624-19.543c0-4.39-.79-5.777-3.236-6.677V0h7.601v26.256h-4.365V6.713zm13.661 0c0-4.39-.79-5.777-3.236-6.677V0h7.602v12.903L89.34 0h3.538l-8.392 9.902 10.085 16.354h-5.38l-7.714-13.277-2.861 3.6v9.677H74.25V6.713h.002zm31.834-1.537l-3.574 10.878h7.263l-3.649-10.878h-.04zm12.228 21.08h-4.854l-2.859-7.952h-8.805l-2.748 7.952h-3.047l7.263-20.292c.413-1.088.714-2.402.714-3.227 0-1.425-.714-2.212-2.22-2.7V0h6.773l9.783 26.256zm5.123 0V6.715c0-4.39-.79-5.777-3.237-6.677V0h7.602v23.854c.225 0 1.43.3 2.634.3h1.129c4.629 0 5.795-1.612 6.398-3.45h.038v5.552h-14.564z"/><path d="M132.599 6.03h.493v-.62h2.884v-.844l-2.95-2.203h-.427V4.58h-1.695v.83h1.695v.62zm.495-3.017l2.166 1.567h-2.166V3.013zm2.529 5.374c0 .562-.311.852-.834.852-.644 0-.971-.361-.971-1.133v-.145h-.405c0 .974-.094 1.56-.883 1.56-.862 0-1.247-.657-1.247-1.79v-.595h-.377v.593c0 1.805.573 2.665 1.63 2.665.759 0 1.188-.62 1.172-1.437h.008c.058.672.638 1.133 1.153 1.133.833 0 1.196-.614 1.196-1.566 0-.42-.151-.968-.333-1.314h-.682v.014c.317.31.573.779.573 1.163zm-4.812 4.65c0 1.407 1.334 1.856 2.825 1.856 1.434 0 2.427-.557 2.427-1.857 0-1.308-.993-1.862-2.427-1.862-1.491 0-2.825.455-2.825 1.862zm4.847 0c0 .671-.811.973-2.036.973-1.216 0-2.405-.145-2.405-.974 0-.837 1.189-.982 2.405-.982 1.225 0 2.036.304 2.036.982zm-1.058 4.015v-1.38h-.008c-.074.368-.319.499-.603.455l-3.087-.455v.477l2.84.398v.008l-2.84 1.212v.434l2.84 1.234v.008l-2.84.354v.859l3.696-.535v-1.33h-.008c-.052.209-.168.324-.298.324a.722.722 0 01-.275-.05l-2.064-.894v-.008l2.647-1.111zM15.39 32.506v-.54h-3.416v5.667h.606v-5.125h2.81v-.002zm4.51 5.125v-5.666h-3.128v2.3c0 2.356-.503 2.825-1.207 2.825h-.151v.54h.287c1.085 0 1.661-.794 1.661-3.184v-1.942h1.932v5.125h.607v.002zm5.11-5.666h-.646l-1.382 3.352-1.534-3.352h-.646l1.877 4.028-.232.532c-.167.39-.359.565-.75.565h-.358v.54h.494c.566 0 .894-.365 1.119-.884l2.058-4.78zm4.792 4.004c0-1.002-.686-1.672-1.749-1.672h-1.541v-1.791h2.937v-.54h-3.544v5.667h2.148c1.06-.002 1.749-.67 1.749-1.664zm-.608 0c0 .707-.439 1.123-1.199 1.123H26.51V34.84h1.486c.76-.002 1.199.411 1.199 1.129zm6.02 1.662v-5.666h-.574l-2.89 4.616v-4.616h-.606v5.668h.574l2.89-4.624v4.624h.606v-.002zm5.556 0v-5.666h-.606v2.539h-2.698v-2.539h-.607v5.668h.607v-2.587h2.698v2.587h.606v-.002zm5.558 0v-5.666h-.606v2.539h-2.7v-2.539h-.607v5.668h.607v-2.587h2.698v2.587h.608v-.002zm5.604 0l-2.084-5.668h-.51l-2.093 5.668h.647l.454-1.283h2.483l.455 1.283h.648zm-1.276-1.805h-2.124l1.069-2.992 1.055 2.992zm3.767-.527h1.405v2.332h.607v-5.666h-2.116c-1.053 0-1.757.652-1.757 1.664 0 .811.47 1.402 1.222 1.584l-1.31 2.42h.71l1.239-2.334zm1.405-.54h-1.453c-.758 0-1.207-.422-1.207-1.132 0-.708.447-1.131 1.207-1.131h1.453v2.262zm8.137 1.21c0-1.002-.686-1.672-1.749-1.672h-1.542v-1.791h2.938v-.54h-3.546v5.667h2.148c1.063-.002 1.75-.67 1.75-1.664zm-.608 0c0 .707-.44 1.123-1.199 1.123h-1.486V34.84h1.486c.76-.002 1.199.411 1.199 1.129zm5.909 1.662l-2.084-5.668h-.51l-2.093 5.668h.646l.455-1.283h2.483l.454 1.283h.648zm-1.279-1.805h-2.124l1.07-2.992 1.054 2.992zm6.268 1.805v-5.666h-.574l-2.89 4.616v-4.616h-.606v5.668h.574l2.89-4.624v4.624h.606v-.002zm-.87-7.027h-.51c-.032.39-.263.588-.654.588-.39 0-.622-.199-.654-.588h-.51c.047.707.502 1.001 1.166 1.001.66.002 1.115-.292 1.163-1.002zm3.153 7.027v-2.952l2.61 2.952h.807l-2.707-2.976 2.491-2.69h-.766l-2.434 2.698v-2.698h-.607v5.668h.606v-.002zm8.193 0l-2.084-5.666h-.51l-2.093 5.668h.646l.455-1.283h2.483l.455 1.283h.648v-.002zm-1.279-1.805H81.33l1.07-2.992 1.053 2.992zm5.957 1.805v-5.666H86.28v2.3c0 2.356-.502 2.825-1.204 2.825h-.152v.54h.287c1.087 0 1.662-.794 1.662-3.184v-1.942h1.932v5.125h.604v.002zm5.534-1.662c0-1.002-.694-1.672-1.757-1.672h-1.525v-2.332h-.607v5.668h2.132c1.053-.002 1.757-.67 1.757-1.664zm-.616 0c0 .707-.439 1.123-1.199 1.123h-1.47V34.84h1.47c.76-.002 1.199.411 1.199 1.129zm5.502.024h-.606c-.152.691-.654 1.147-1.366 1.147a1.37 1.37 0 01-.981-.398c-.36-.366-.4-.755-.4-1.942 0-1.185.04-1.576.4-1.942a1.37 1.37 0 01.98-.398c.71 0 1.2.453 1.35 1.147h.623c-.191-1.067-.95-1.688-1.972-1.688-.559 0-1.071.207-1.454.589-.535.533-.535 1.09-.535 2.292 0 1.203 0 1.76.535 2.292.383.382.893.588 1.454.588 1.013-.002 1.788-.622 1.972-1.687zm1.98 1.638v-2.952l2.611 2.952h.805l-2.706-2.976 2.491-2.69h-.766l-2.435 2.698v-2.698h-.606v5.668h.606v-.002zm8.19 0l-2.083-5.668h-.511l-2.092 5.668h.646l.455-1.283h2.483l.454 1.283h.648zm-1.278-1.805h-2.124l1.071-2.992 1.053 2.992zm3.769-.527h1.406v2.332h.606v-5.666h-2.115c-1.053 0-1.757.652-1.757 1.664 0 .811.47 1.402 1.22 1.584l-1.31 2.42h.71l1.24-2.334zm1.406-.54h-1.454c-.757 0-1.204-.422-1.204-1.132 0-.708.447-1.131 1.204-1.131h1.454v2.262zm8.145 1.321c0-.43-.144-.78-.423-1.051-.136-.136-.24-.2-.503-.31.216-.096.303-.144.423-.263.271-.254.415-.596.415-1.002 0-.89-.67-1.489-1.677-1.489h-2.14v5.668h2.211c1.053-.002 1.694-.59 1.694-1.553zm-.696-2.594c0 .62-.415.986-1.119.986h-1.486v-1.966h1.486c.704 0 1.119.366 1.119.98zm.087 2.562c0 .636-.438 1.044-1.14 1.044h-1.55v-2.077h1.55c.702-.002 1.14.395 1.14 1.033zm5.798-1.64c0-.691-.04-1.41-.535-1.902a2.029 2.029 0 00-1.454-.588c-.558 0-1.071.206-1.454.588-.486.485-.534 1.177-.534 1.855v.437c0 1.131.016 1.775.534 2.292a2.02 2.02 0 001.454.588c.567 0 1.071-.206 1.454-.588.519-.517.535-1.163.535-2.292v-.39zm-.609.668c0 .652-.008 1.267-.399 1.656a1.371 1.371 0 01-.983.406 1.37 1.37 0 01-.981-.406c-.367-.366-.399-.922-.399-1.536v-.565c0-.78 0-1.37.399-1.767a1.392 1.392 0 011.964 0c.375.373.399.964.399 1.632v.58zm1.263 2.014V39h.598v-1.37h3.809V39h.598v-1.91h-.678v-5.125h-3.105v1.91c0 1.384-.199 2.404-.718 3.215h-.504zm1.182 0c.455-.795.614-1.791.614-2.84v-1.744h1.925v4.584h-2.539zm8.934.54l-2.084-5.667h-.51l-2.092 5.668h.646l.455-1.283h2.482l.455 1.283H138zm-1.278-1.804h-2.124l1.071-2.992 1.053 2.992z"/></g><defs><clipPath id="clip0"><path fill="#fff" transform="translate(9)" d="M0 0h129v39H0z"/></clipPath></defs></svg>
